images/standarts/standart-4.svg

<svg width="25" height="24" viewBox="0 0 25 24" fill="none" xmlns="http://www.w3.org/2000/svg">
<g clip-path="url(#clip0_68_4520)">
<path d="M21.1787 16.0961L18.5947 14.6041L20.1946 14.18C20.4144 14.1142 20.5422 13.8856 20.4828 13.6641L20.2869 12.9322C20.2587 12.8237 20.1882 12.7308 20.0913 12.6744C19.9945 12.618 19.879 12.6027 19.7707 12.632L16.6306 13.4722L14.0826 12.0001L16.6346 10.528L19.7747 11.3681C19.8826 11.3974 19.9984 11.3821 20.0953 11.3257C20.1924 11.2694 20.2627 11.1767 20.2909 11.0682L20.4828 10.336C20.5414 10.1109 20.4075 9.88066 20.1829 9.82011L18.583 9.396L21.167 7.90406C21.3668 7.78603 21.4343 7.52933 21.3188 7.32816L20.9427 6.67218C20.8258 6.471 20.5691 6.40124 20.3668 6.51592L17.7948 8.00001L18.2228 6.40014C18.2814 6.17497 18.1475 5.9445 17.9228 5.88395L17.191 5.68807C17.083 5.65877 16.9672 5.67412 16.8704 5.73048C16.7733 5.78685 16.703 5.87948 16.6748 5.98802L15.8346 9.12392L13.2827 10.6161V7.66804L15.5788 5.36809C15.6622 5.29219 15.7096 5.18477 15.7096 5.07205C15.7096 4.95932 15.6622 4.8519 15.5788 4.77601L15.0428 4.24001C14.9669 4.15658 14.8595 4.10915 14.7467 4.10915C14.634 4.10915 14.5266 4.15658 14.4507 4.24001L13.2827 5.40409V2.41999C13.2883 2.31061 13.2486 2.20347 13.173 2.12423C13.0974 2.0447 12.9925 2.00006 12.8828 2.00006H12.1228C12.0131 2.00006 11.9082 2.0447 11.8326 2.12423C11.757 2.20347 11.7173 2.31061 11.7226 2.41999V5.40409L10.5148 4.24001C10.4389 4.15658 10.3315 4.10915 10.2187 4.10915C10.106 4.10915 9.99859 4.15658 9.92269 4.24001L9.38669 4.77601C9.30327 4.8519 9.25584 4.95932 9.25584 5.07205C9.25584 5.18477 9.30327 5.29219 9.38669 5.36809L11.6828 7.66804V10.6161L9.13084 9.14013L8.29068 6.00002C8.2625 5.89148 8.19219 5.79885 8.09509 5.74248C7.99826 5.68612 7.88275 5.67078 7.77477 5.70007L7.0429 5.89595C6.82415 5.95649 6.69161 6.17887 6.74268 6.40014L7.1707 8.00001L4.58667 6.50807C4.38438 6.39311 4.1274 6.46286 4.01049 6.66404L3.63437 7.32002C3.51885 7.52119 3.58694 7.7779 3.78671 7.89592L6.37074 9.38786L4.77087 9.81198C4.5471 9.87783 4.41819 10.1119 4.48264 10.336L4.67852 11.0678C4.7067 11.1764 4.77729 11.2693 4.87411 11.3257C4.97094 11.382 5.08645 11.3974 5.19471 11.3681L8.33482 10.5279L10.8828 12L8.33089 13.4721L5.19078 12.6319C5.0828 12.6026 4.96701 12.618 4.87018 12.6744C4.77308 12.7307 4.70277 12.8233 4.67459 12.9319L4.48262 13.664C4.42403 13.8892 4.55796 14.1194 4.78257 14.18L6.38244 14.6041L3.79841 16.096C3.59863 16.214 3.53111 16.4707 3.64663 16.6719L4.02275 17.3279C4.13965 17.5291 4.39636 17.5988 4.59864 17.4841L7.17067 16.0001L6.74266 17.5999C6.68406 17.8251 6.81799 18.0556 7.0426 18.1161L7.77447 18.312C7.88413 18.341 8.00131 18.324 8.09869 18.2651C8.1958 18.2065 8.26527 18.1108 8.29066 18.0001L9.13081 14.8642L11.6828 13.3839V16.332L9.38667 18.632C9.30324 18.7079 9.25581 18.8153 9.25581 18.928C9.25581 19.0408 9.30325 19.1482 9.38667 19.2241L9.92267 19.7601C9.99857 19.8435 10.106 19.8909 10.2187 19.8909C10.3314 19.8909 10.4389 19.8435 10.5148 19.7601L11.6828 18.596V21.5999C11.6828 21.7063 11.7249 21.8078 11.8 21.8829C11.875 21.9579 11.9766 22.0001 12.0826 22.0001H12.8828C12.9889 22.0001 13.0904 21.9579 13.1655 21.8829C13.2405 21.8078 13.2827 21.7062 13.2827 21.5999V18.596L14.4507 19.7601C14.5266 19.8435 14.634 19.8909 14.7467 19.8909C14.8594 19.8909 14.9669 19.8435 15.0427 19.7601L15.5787 19.2241C15.6622 19.1482 15.7096 19.0408 15.7096 18.928C15.7096 18.8153 15.6622 18.7079 15.5787 18.632L13.2826 16.332V13.3839L15.8346 14.8599L16.6748 18.0001C16.7029 18.1086 16.7733 18.2012 16.8704 18.2576C16.9672 18.314 17.0827 18.3293 17.1907 18.3L17.9225 18.1041C18.1413 18.0436 18.2738 17.8212 18.2228 17.5999L17.7947 16.0001L20.3788 17.492C20.5811 17.607 20.838 17.5372 20.955 17.336L21.3311 16.6801C21.3891 16.5827 21.4056 16.466 21.3768 16.3564C21.3484 16.2465 21.2769 16.153 21.1787 16.0961Z" fill="white"/>
</g>
<defs>
<clipPath id="clip0_68_4520">
<rect width="24" height="24" fill="white" transform="translate(0.5)"/>
</clipPath>
</defs>
</svg>

<svg width="25" height="24" fill="none" xmlns="http://www.w3.org/2000/svg"><g clip-path="url(#clip0_68_4520)"><path d="M21.179 16.096l-2.584-1.492 1.6-.424a.424.424 0 00.288-.516l-.196-.732a.421.421 0 00-.516-.3l-3.14.84L14.083 12l2.552-1.472 3.14.84a.42.42 0 00.516-.3l.192-.732a.424.424 0 00-.3-.516l-1.6-.424 2.584-1.492a.424.424 0 00.152-.576l-.376-.656a.424.424 0 00-.576-.156L17.795 8l.428-1.6a.424.424 0 00-.3-.516l-.732-.196a.42.42 0 00-.516.3l-.84 3.136-2.552 1.492V7.668l2.296-2.3a.4.4 0 000-.592l-.536-.536a.4.4 0 00-.592 0l-1.168 1.164V2.42a.4.4 0 00-.4-.42h-.76a.4.4 0 00-.4.42v2.984L10.515 4.24a.4.4 0 00-.592 0l-.536.536a.4.4 0 000 .592l2.296 2.3v2.948L9.13 9.14 8.29 6a.42.42 0 00-.516-.3l-.732.196a.424.424 0 00-.3.504L7.17 8 4.587 6.508a.424.424 0 00-.577.156l-.376.656a.424.424 0 00.153.576L6.37 9.388l-1.6.424a.424.424 0 00-.288.524l.196.732a.421.421 0 00.516.3l3.14-.84L10.883 12 8.33 13.472l-3.14-.84a.42.42 0 00-.516.3l-.192.732a.424.424 0 00.3.516l1.6.424-2.585 1.492a.424.424 0 00-.151.576l.376.656c.117.201.373.27.576.156L7.17 16l-.428 1.6a.424.424 0 00.3.516l.731.196A.42.42 0 008.291 18l.84-3.136 2.552-1.48v2.948l-2.296 2.3a.4.4 0 000 .592l.536.536a.4.4 0 00.592 0l1.168-1.164V21.6a.4.4 0 00.4.4h.8a.4.4 0 00.4-.4v-3.004l1.168 1.164a.4.4 0 00.592 0l.536-.536a.4.4 0 000-.592l-2.296-2.3v-2.948l2.552 1.476.84 3.14a.42.42 0 00.516.3l.732-.196a.424.424 0 00.3-.504l-.428-1.6 2.584 1.492a.424.424 0 00.576-.156l.376-.656a.423.423 0 00-.152-.584z" fill="#fff"/></g><defs><clipPath id="clip0_68_4520"><path fill="#fff" transform="translate(.5)" d="M0 0h24v24H0z"/></clipPath></defs></svg>
